tools/download-figma-icons/icons/outlined-medium/checklist.svg

<svg width="24" height="24" viewBox="0 0 24 24" fill="none" xmlns="http://www.w3.org/2000/svg">
<path fill-rule="evenodd" clip-rule="evenodd" d="M19.7278 22.4963H4.49976V3.34425H7.67526V5.54475C7.67526 5.9595 8.01051 6.29475 8.42526 6.29475H8.48226H15.803C16.217 6.29475 16.553 5.9595 16.553 5.54475V3.34425H19.7278V22.4963ZM10.2695 3.34425C10.6835 3.34425 11.0195 3.009 11.0195 2.59425C11.0195 1.9905 11.5107 1.5 12.1145 1.5C12.7175 1.5 13.2087 1.9905 13.2087 2.59425C13.2087 3.009 13.544 3.34425 13.9587 3.34425H15.053V4.79475H9.23225V3.34425H10.2695ZM20.4778 1.84425H15.803H14.5978C14.2753 0.7785 13.2838 0 12.1145 0C10.9438 0 9.95226 0.7785 9.62976 1.84425H8.48226H8.42526H3.74976C3.33576 1.84425 2.99976 2.1795 2.99976 2.59425V23.2463C2.99976 23.661 3.33576 23.9963 3.74976 23.9963H20.4778C20.8925 23.9963 21.2278 23.661 21.2278 23.2463V2.59425C21.2278 2.1795 20.8925 1.84425 20.4778 1.84425ZM11.9026 11.5604C11.9026 11.9752 12.2378 12.3104 12.6526 12.3104H17.5141C17.9288 12.3104 18.2641 11.9752 18.2641 11.5604C18.2641 11.1457 17.9288 10.8104 17.5141 10.8104H12.6526C12.2378 10.8104 11.9026 11.1457 11.9026 11.5604ZM12.6851 16.8302H17.5459C17.9606 16.8302 18.2959 17.1655 18.2959 17.5802C18.2959 17.995 17.9606 18.3302 17.5459 18.3302H12.6851C12.2704 18.3302 11.9351 17.995 11.9351 17.5802C11.9351 17.1655 12.2704 16.8302 12.6851 16.8302ZM10.4011 15.6576C10.1079 15.3644 9.63389 15.3644 9.34064 15.6576L8.47889 16.5194L7.61714 15.6576C7.32389 15.3644 6.84989 15.3644 6.55664 15.6576C6.26339 15.9509 6.26339 16.4249 6.55664 16.7181L7.41839 17.5799L6.55664 18.4424C6.26339 18.7356 6.26339 19.2096 6.55664 19.5029C6.70289 19.6491 6.89489 19.7226 7.08689 19.7226C7.27889 19.7226 7.47089 19.6491 7.61714 19.5029L8.47889 18.6411L9.34064 19.5029C9.48689 19.6491 9.67889 19.7226 9.87089 19.7226C10.0629 19.7226 10.2549 19.6491 10.4011 19.5029C10.6944 19.2096 10.6944 18.7356 10.4011 18.4424L9.53939 17.5799L10.4011 16.7181C10.6944 16.4249 10.6944 15.9509 10.4011 15.6576ZM7.97271 11.5726L9.58371 9.96157C9.87696 9.66832 10.351 9.66832 10.6442 9.96157C10.9375 10.2548 10.9375 10.7288 10.6442 11.0221L8.50296 13.1641C8.35596 13.3103 8.16396 13.3831 7.97271 13.3831C7.78071 13.3831 7.58871 13.3103 7.44246 13.1641L6.15696 11.8793C5.86371 11.5868 5.86371 11.1113 6.15696 10.8188C6.44946 10.5256 6.92421 10.5256 7.21746 10.8188L7.97271 11.5726Z" fill="black"/>
</svg>

<svg xmlns="http://www.w3.org/2000/svg" width="24" height="24" fill="none" viewBox="0 0 24 24"><path fill="currentColor" fill-rule="evenodd" d="M19.728 22.496H4.5V3.344h3.175v2.2c0 .416.336.75.75.75h7.378a.75.75 0 0 0 .75-.75v-2.2h3.175zM10.27 3.344a.75.75 0 0 0 .75-.75 1.096 1.096 0 0 1 2.189 0c0 .415.335.75.75.75h1.094v1.45h-5.82v-1.45zm10.208-1.5h-5.88A2.6 2.6 0 0 0 12.114 0 2.6 2.6 0 0 0 9.63 1.844H3.75a.75.75 0 0 0-.75.75v20.652c0 .415.336.75.75.75h16.728a.75.75 0 0 0 .75-.75V2.594a.75.75 0 0 0-.75-.75m-8.575 9.716c0 .415.335.75.75.75h4.861a.75.75 0 1 0 0-1.5h-4.861a.75.75 0 0 0-.75.75m.782 5.27h4.86a.75.75 0 1 1 0 1.5h-4.86a.75.75 0 1 1 0-1.5m-2.284-1.172a.75.75 0 0 0-1.06 0l-.862.861-.862-.861a.75.75 0 1 0-1.06 1.06l.861.862-.861.862a.75.75 0 1 0 1.06 1.06l.862-.86.862.86a.75.75 0 0 0 1.06 0 .75.75 0 0 0 0-1.06l-.862-.862.862-.862a.75.75 0 0 0 0-1.06m-2.428-4.085 1.61-1.611a.75.75 0 1 1 1.061 1.06l-2.141 2.142a.75.75 0 0 1-1.06 0L6.156 11.88a.75.75 0 1 1 1.06-1.06z" clip-rule="evenodd"/></svg>
